assets/images/svg/bg/arrowup.svg

<svg width="21" height="31" viewBox="0 0 21 31" fill="none" xmlns="http://www.w3.org/2000/svg">
<path d="M9.94702 0.166038L0.706646 8.19337C0.43562 8.32737 0.2148 8.68115 0.213422 8.98341L0.179378 16.4475C0.177999 16.7498 0.396582 16.8864 0.667609 16.7524L9.90798 8.72507C10.1791 8.59107 10.6176 8.59308 10.8875 8.72954L19.8718 16.84C20.1416 16.9765 20.3614 16.8419 20.3628 16.5396L20.3969 9.07552C20.3994 8.50862 19.7848 8.15715 19.4106 7.82992C18.9152 7.39688 12.272 1.38505 10.9265 0.170392C10.6565 0.0340949 10.2182 0.0320956 9.94702 0.166038Z" fill="#24CB00"/>
<path d="M19.8093 30.6731C20.0791 30.8096 20.2989 30.675 20.3003 30.3727C20.3003 30.3727 20.3344 22.9086 20.3344 22.9085C20.3373 22.2174 18.9501 21.3031 18.448 20.8499C17.5648 20.0525 10.9504 14.0473 10.8639 14.0036C10.594 13.8671 10.1554 13.8651 9.88435 13.9991L0.643977 22.0265C0.372895 22.1605 0.152075 22.5142 0.150696 22.8166L0.116653 30.2806C0.115274 30.5829 0.333857 30.7194 0.604939 30.5855L9.84531 22.5581C10.1163 22.4241 10.555 22.4261 10.8248 22.5626L19.8093 30.6731Z" fill="#24CB00"/>
</svg>

<svg width="21" height="31" fill="none" xmlns="http://www.w3.org/2000/svg"><path d="M9.947.166L.707 8.193a.97.97 0 00-.494.79L.18 16.448c-.001.302.218.438.489.304l9.24-8.027c.271-.134.71-.132.98.005l8.984 8.11c.27.137.49.002.49-.3l.035-7.464c.002-.567-.612-.919-.986-1.246-.496-.433-7.139-6.445-8.485-7.66a1.234 1.234 0 00-.979-.004z" fill="#24CB00"/><path d="M19.81 30.673c.27.137.489.002.49-.3l.034-7.465c.003-.69-1.384-1.605-1.886-2.058-.883-.798-7.498-6.803-7.584-6.846a1.233 1.233 0 00-.98-.005l-9.24 8.027a.97.97 0 00-.493.79l-.034 7.465c-.002.302.217.438.488.305l9.24-8.028c.271-.134.71-.132.98.005l8.984 8.11z" fill="#24CB00"/></svg>
